svgs/duotone/booth-curtain.svg

<svg xmlns="http://www.w3.org/2000/svg" viewBox="0 0 512 512"><!-- Font Awesome Pro 6.0.0-alpha2 by @fontawesome - https://fontawesome.com License - https://fontawesome.com/license (Commercial License) --><defs><style>.fa-secondary{opacity:.4}</style></defs><path d="M0 32V496C0 504.75 7.25 512 16 512H48C56.75 512 64 504.75 64 496V64H160V0H32C14.25 0 0 14.25 0 32ZM480 0H448V496C448 504.75 455.25 512 464 512H496C504.75 512 512 504.75 512 496V32C512 14.25 497.75 0 480 0Z" class="fa-secondary"/><path d="M448 0V400C448 426.5 426.5 448 400 448C375.541 448 355.553 429.785 352 406.461C348.447 429.785 328.459 448 304 448S259.551 429.783 256 406.459C252.449 429.783 232.459 448 208 448C181.5 448 160 426.5 160 400V0H448Z" class="fa-primary"/></svg>

<svg xmlns="http://www.w3.org/2000/svg" viewBox="0 0 512 512"><!--! Font Awesome Pro 6.3.0 by @fontawesome - https://fontawesome.com License - https://fontawesome.com/license (Commercial License) Copyright 2023 Fonticons, Inc. --><defs><style>.fa-secondary{opacity:.4}</style></defs><path class="fa-primary" d="M448 0v400c0 26.5-21.5 48-48 48c-24.46 0-44.45-18.21-48-41.54C348.4 429.8 328.5 448 304 448s-44.45-18.22-48-41.54C252.4 429.8 232.5 448 208 448C181.5 448 160 426.5 160 400V0H448z"/><path class="fa-secondary" d="M0 32v464C0 504.8 7.25 512 15.1 512H48C56.75 512 64 504.8 64 496V64h96V0H32C14.25 0 0 14.25 0 32zM480 0h-32v496c0 8.75 7.25 16 16 16h32c8.75 0 16-7.25 16-16V32C512 14.25 497.8 0 480 0z"/></svg>
